src/assets/duotone/BoxAdd.svg

<svg width="24" height="24" viewBox="0 0 24 24"  xmlns="http://www.w3.org/2000/svg">
<path d="M22 15.7C22 15.69 21.99 15.68 21.98 15.67C21.94 15.61 21.89 15.55 21.84 15.5C21.83 15.49 21.82 15.47 21.81 15.46C21 14.56 19.81 14 18.5 14C17.24 14 16.09 14.52 15.27 15.36C14.48 16.17 14 17.28 14 18.5C14 19.34 14.24 20.14 14.65 20.82C14.87 21.19 15.15 21.53 15.47 21.81C15.49 21.82 15.5 21.83 15.51 21.84C15.56 21.89 15.61 21.93 15.67 21.98C15.67 21.98 15.67 21.98 15.68 21.98C15.69 21.99 15.7 22 15.71 22C16.46 22.63 17.43 23 18.5 23C20.14 23 21.57 22.12 22.35 20.82C22.58 20.43 22.76 20 22.87 19.55C22.96 19.21 23 18.86 23 18.5C23 17.44 22.63 16.46 22 15.7ZM20.18 19.23H19.25V20.2C19.25 20.61 18.91 20.95 18.5 20.95C18.09 20.95 17.75 20.61 17.75 20.2V19.23H16.82C16.41 19.23 16.07 18.89 16.07 18.48C16.07 18.07 16.41 17.73 16.82 17.73H17.75V16.84C17.75 16.43 18.09 16.09 18.5 16.09C18.91 16.09 19.25 16.43 19.25 16.84V17.73H20.18C20.59 17.73 20.93 18.07 20.93 18.48C20.93 18.89 20.6 19.23 20.18 19.23Z" />
<path opacity="0.4" d="M19.3499 5.65995L13.0599 2.27C12.3999 1.91 11.5999 1.91 10.9299 2.27L4.63991 5.65995C4.17991 5.90995 3.8999 6.39998 3.8999 6.93998C3.8999 7.47998 4.17991 7.96995 4.63991 8.21995L10.9299 11.61C11.2599 11.79 11.6299 11.88 11.9899 11.88C12.3499 11.88 12.7199 11.79 13.0499 11.61L19.3399 8.21995C19.7999 7.96995 20.0799 7.47998 20.0799 6.93998C20.0999 6.39998 19.8099 5.90995 19.3499 5.65995Z" />
<path opacity="0.4" d="M9.90021 12.7899L4.05022 9.85989C3.60022 9.62989 3.08021 9.65989 2.65021 9.91989C2.22021 10.1799 1.97021 10.6399 1.97021 11.1399V16.6699C1.97021 17.6299 2.50021 18.4899 3.36021 18.9199L9.21022 21.8399C9.41022 21.9399 9.63022 21.9899 9.85022 21.9899C10.1102 21.9899 10.3702 21.9199 10.6002 21.7699C11.0302 21.5099 11.2802 21.0499 11.2802 20.5499V15.0199C11.2902 14.0799 10.7602 13.2199 9.90021 12.7899Z" />
<path opacity="0.4" d="M22.03 11.1502V15.7401C22.02 15.7301 22.01 15.7101 22 15.7001C22 15.6901 21.99 15.6801 21.9799 15.6701C21.9399 15.6101 21.89 15.5501 21.84 15.5001C21.83 15.4901 21.82 15.4702 21.81 15.4602C21 14.5602 19.81 14.0001 18.5 14.0001C17.24 14.0001 16.09 14.5201 15.27 15.3601C14.48 16.1701 14 17.2801 14 18.5001C14 19.3401 14.2399 20.1401 14.6499 20.8201C14.8199 21.1101 15.0299 21.3701 15.2599 21.6101L14.7899 21.8501C14.5899 21.9501 14.3699 22.0001 14.1499 22.0001C13.8899 22.0001 13.63 21.9302 13.39 21.7802C12.97 21.5202 12.71 21.0601 12.71 20.5601V15.0401C12.71 14.0801 13.24 13.2201 14.1 12.7901L19.95 9.87013C20.4 9.64013 20.92 9.66012 21.35 9.93012C21.77 10.1901 22.03 10.6502 22.03 11.1502Z" />
</svg>

<?xml version="1.0" encoding="UTF-8"?>
<svg width="24" height="24" viewBox="0 0 24 24" xmlns="http://www.w3.org/2000/svg">
 <path d="m22 15.7c0-0.01-0.01-0.02-0.02-0.03-0.04-0.06-0.09-0.12-0.14-0.17-0.01-0.01-0.02-0.03-0.03-0.04-0.81-0.9-2-1.46-3.31-1.46-1.26 0-2.41 0.52-3.23 1.36-0.79 0.81-1.27 1.92-1.27 3.14 0 0.84 0.24 1.64 0.65 2.32 0.22 0.37 0.5 0.71 0.82 0.99 0.02 0.01 0.03 0.02 0.04 0.03 0.05 0.05 0.1 0.09 0.16 0.14h0.01c0.01 0.01 0.02 0.02 0.03 0.02 0.75 0.63 1.72 1 2.79 1 1.64 0 3.07-0.88 3.85-2.18 0.23-0.39 0.41-0.82 0.52-1.27 0.09-0.34 0.13-0.69 0.13-1.05 0-1.06-0.37-2.04-1-2.8zm-1.82 3.53h-0.93v0.97c0 0.41-0.34 0.75-0.75 0.75s-0.75-0.34-0.75-0.75v-0.97h-0.93c-0.41 0-0.75-0.34-0.75-0.75s0.34-0.75 0.75-0.75h0.93v-0.89c0-0.41 0.34-0.75 0.75-0.75s0.75 0.34 0.75 0.75v0.89h0.93c0.41 0 0.75 0.34 0.75 0.75s-0.33 0.75-0.75 0.75z"/>
 <path d="m19.35 5.66-6.29-3.39c-0.66-0.36-1.46-0.36-2.13 0l-6.29 3.39c-0.46 0.25-0.74001 0.74003-0.74001 1.28s0.28001 1.03 0.74001 1.28l6.29 3.39c0.33 0.18 0.7 0.27 1.06 0.27s0.73-0.09 1.06-0.27l6.29-3.39c0.46-0.25 0.74-0.73997 0.74-1.28 0.02-0.54-0.27-1.03-0.73-1.28z" opacity=".4"/>
 <path d="m9.9002 12.79-5.85-2.93c-0.45-0.23-0.97001-0.2-1.4 0.06-0.43 0.26001-0.68 0.72001-0.68 1.22v5.53c0 0.96 0.53 1.82 1.39 2.25l5.85 2.92c0.2 0.1 0.42 0.15 0.64 0.15 0.25998 0 0.51998-0.07 0.74998-0.22 0.43-0.26 0.68-0.72 0.68-1.22v-5.53c0.01-0.94-0.52-1.8-1.38-2.23z" opacity=".4"/>
 <path d="m22.03 11.15v4.5899c-0.01-0.01-0.02-0.03-0.03-0.04 0-0.01-0.01-0.02-0.0201-0.03-0.04-0.06-0.0899-0.12-0.1399-0.17-0.01-0.01-0.02-0.0299-0.03-0.0399-0.81-0.9-2-1.4601-3.31-1.4601-1.26 0-2.41 0.52-3.23 1.36-0.79 0.81-1.27 1.92-1.27 3.14 0 0.84 0.2399 1.64 0.6499 2.32 0.17 0.29 0.38 0.55 0.61 0.79l-0.47 0.24c-0.2 0.1-0.42 0.15-0.64 0.15-0.26 0-0.5199-0.0699-0.7599-0.2199-0.42-0.26-0.68-0.7201-0.68-1.2201v-5.52c0-0.96 0.53-1.82 1.39-2.25l5.85-2.92c0.45-0.23 0.97-0.21001 1.4 0.05999 0.42 0.25998 0.68 0.72008 0.68 1.2201z" opacity=".4"/>
</svg>
